assets/Shorts/Flat/shorts_flat.svg

<svg width="32" height="32" viewBox="0 0 32 32" fill="none" xmlns="http://www.w3.org/2000/svg">
<path d="M30.0002 26.08L27.1402 6.22C27.1007 5.85224 26.9268 5.51202 26.6518 5.26469C26.3768 5.01736 26.0201 4.88036 25.6502 4.88H6.35019C5.98032 4.88036 5.62362 5.01736 5.3486 5.26469C5.07358 5.51202 4.89964 5.85224 4.86019 6.22L2.00019 26.08C1.91326 26.652 2.05414 27.2354 2.39256 27.7047C2.73099 28.174 3.23997 28.4918 3.81019 28.59L10.2202 29.59C10.7805 29.6797 11.3538 29.5514 11.8225 29.2315C12.2911 28.9116 12.6195 28.4244 12.7402 27.87L14.3202 20C14.36 19.7909 14.4718 19.6023 14.6362 19.4671C14.8007 19.3319 15.0073 19.2586 15.2202 19.26H16.7802C16.9931 19.2586 17.1997 19.3319 17.3642 19.4671C17.5286 19.6023 17.6404 19.7909 17.6802 20L19.2302 27.91C19.3509 28.4644 19.6792 28.9516 20.1479 29.2715C20.6166 29.5914 21.1899 29.7197 21.7502 29.63L28.1602 28.63C28.4492 28.5851 28.7265 28.4832 28.9758 28.3303C29.2252 28.1775 29.4417 27.9766 29.6129 27.7394C29.7841 27.5022 29.9064 27.2334 29.9729 26.9485C30.0394 26.6637 30.0487 26.3685 30.0002 26.08Z" fill="#6AFCAC"/>
<path d="M27.1401 6.22C27.1006 5.85224 26.9267 5.51202 26.6517 5.26469C26.3767 5.01736 26.02 4.88036 25.6501 4.88H6.3501C5.98023 4.88036 5.62352 5.01736 5.34851 5.26469C5.07349 5.51202 4.89955 5.85224 4.8601 6.22L4.60352 8.00173H7.39995C7.3059 9.77388 6.54225 11.4442 5.26346 12.6747C4.81672 13.1046 4.30795 13.4754 3.77344 13.7695C3.7216 14.1184 3.69785 14.2979 3.67604 14.4627L3.6712 14.4993L3.60864 14.9457C4.46701 14.5655 5.25927 14.0339 5.94445 13.3679C7.40218 11.951 8.26583 10.0324 8.35996 8.00173H23.6201C23.7192 10.0288 24.585 11.9425 26.0422 13.3552C26.7312 14.0231 27.5279 14.5554 28.391 14.9348L28.2198 13.7574C27.6788 13.4626 27.1749 13.0954 26.7232 12.662C25.4449 11.4357 24.6791 9.77034 24.5801 8.00173H27.3967L27.1401 6.22Z" fill="#00D26A"/>
<path d="M11.9632 14.8591C12.036 14.9824 12.154 15.0723 12.2921 15.11C12.3623 15.1343 12.4368 15.1437 12.5108 15.1374C12.5848 15.1312 12.6567 15.1094 12.7217 15.0736C12.7868 15.0377 12.8436 14.9886 12.8885 14.9294C12.9333 14.8703 12.9652 14.8023 12.9821 14.73L14.9821 7.36997C15.0193 7.22676 14.998 7.07466 14.923 6.94713C14.848 6.81961 14.7254 6.7271 14.5821 6.68997C14.4389 6.65284 14.2868 6.67413 14.1593 6.74914C14.0318 6.82416 13.9393 6.94676 13.9021 7.08997L11.9021 14.45C11.8685 14.5891 11.8904 14.7359 11.9632 14.8591Z" fill="white"/>
<path d="M20.0368 14.8591C19.964 14.9824 19.846 15.0723 19.7079 15.11C19.6377 15.1343 19.5632 15.1437 19.4892 15.1374C19.4152 15.1312 19.3433 15.1094 19.2783 15.0736C19.2132 15.0377 19.1564 14.9886 19.1115 14.9294C19.0667 14.8703 19.0348 14.8023 19.0179 14.73L17.0179 7.36997C16.9807 7.22676 17.002 7.07466 17.077 6.94713C17.152 6.81961 17.2746 6.7271 17.4179 6.68997C17.5611 6.65284 17.7132 6.67413 17.8407 6.74914C17.9682 6.82416 18.0607 6.94676 18.0979 7.08997L20.0979 14.45C20.1315 14.5891 20.1096 14.7359 20.0368 14.8591Z" fill="white"/>
</svg>

<svg xmlns="http://www.w3.org/2000/svg" width="32" height="32" fill="none"><path fill="#6AFCAC" d="M30 26.08 27.14 6.22a1.5 1.5 0 0 0-1.49-1.34H6.35a1.5 1.5 0 0 0-1.49 1.34L2 26.08a2.21 2.21 0 0 0 1.81 2.51l6.41 1a2.22 2.22 0 0 0 2.52-1.72L14.32 20a.91.91 0 0 1 .9-.74h1.56a.91.91 0 0 1 .9.74l1.55 7.91a2.22 2.22 0 0 0 2.52 1.72l6.41-1A2.209 2.209 0 0 0 30 26.08Z"/><path fill="#00D26A" d="M27.14 6.22a1.5 1.5 0 0 0-1.49-1.34H6.35a1.5 1.5 0 0 0-1.49 1.34l-.256 1.782H7.4a7 7 0 0 1-3.627 5.768c-.051.348-.075.528-.097.693l-.005.036-.062.447A7.997 7.997 0 0 0 8.36 8.002h15.26a8 8 0 0 0 4.771 6.933l-.171-1.178a6.997 6.997 0 0 1-3.64-5.755h2.817L27.14 6.22Z"/><path fill="#fff" d="M11.963 14.86a.55.55 0 0 0 .33.25.53.53 0 0 0 .69-.38l2-7.36a.558.558 0 1 0-1.08-.28l-2 7.36a.55.55 0 0 0 .06.41ZM20.037 14.86a.55.55 0 0 1-.33.25.53.53 0 0 1-.69-.38l-2-7.36a.558.558 0 1 1 1.08-.28l2 7.36a.55.55 0 0 1-.06.41Z"/></svg>
